X: 40628
T: Tooralooralooral, An Irish Lullaby
R: jig
M: 6/8
K: Gmajor
"G"B2AG2A|Bd2d3|"C"e2fe2B|"G"d3dzd|
"G"B2AG2A|"G"B2dd2^d|"Am"e2AA2B|"D"A3"Dsus"A2"D"G/A/|
"G"B2AG2A|Bd2B2d|"C"e2fe2B|"G"d3d2B/d/|
"C"e2fg2f|"G"e2dB2G|"Am"B2AA2B|"D"A3^A2|
"G"B2AG2A|Bd2d3|"C"e2^de2f|g6|
"Am7"g2fg2e|"G"dB2B3|"Am"e2AA2B|"D"A3^A3|
"G"B2AG2A|Bd2d3|"C"e2^de2f|g6|
"Am7"g2fg2e|"G"dB2B2d|"Am"e2g"D"g2a|"G"g6||

